X:1
T:I.
T:Kevin Jiang The Art of Romantic Waltz For violin and piano I. "The Seventh Wind" 
T:Transcription by, Bobby C. H. Huen 
C:Kevin Jiang, arr. Bobby C. H. Huen
%%score ( 1 2 ) { 3 | ( 4 5 6 ) }
L:1/8
Q:1/4=130
M:3/4
K:Bb
V:1 treble nm="Violin" snm="Vln."
V:2 treble 
V:3 treble nm="Piano" snm="Pno."
V:4 bass 
V:5 bass 
V:6 bass 
V:1
"^wildly" z6 | z6 | z6 | z6 | z4 .D2 |!p! .D2!<(! .D2 D2-!<)! |!mp! D2 D2 (d2- | d^f) (gb) ag | %8
 ^fe (dB) (AG) | !arpeggio![G,Bd]4 (d^c) |({ef} ed BG d2) |!>(!({de} dB GD B2)!>)! | %12
!<(! (b^f ga [dg]2-!<)! | [dg]2)!mf! d'4- | d'!8va(!(^f' g'b' a'g' | ^f'e') (d'b!8va)! ag | %16
 a2) (a^g ba | a2) (a^g ba) |!>(! (gf ^d=d cd)!>)! | (^d=e"_riten" f^f!<(! g)!tenuto!^G | %20
 (AB =Bc ^cd)!<)! |!f!"_a tempo" ([Dd][F^c] [Gd][E=c]) [Dd]2 | ([Gc][E=B] [Fc][D_B]) [Gc]2 | %23
 ([DG][B,^F] [G,G][A,=F]) [G,G]2 |!mp!"_subito" !-(!B2 !-)!b4 | !-(!e2 !-)!B4 | !-(!D2 !-)!d4 | %27
 !-(!d2 !-)!D4 |!mf! !tenuto![Dd]!tenuto![Dd] !tenuto![Dd]!tenuto![Cc] !tenuto![Dd]2 | %29
 !tenuto![Cc]!tenuto![Cc] !tenuto![Cc]!tenuto![B,B] !tenuto![Cc]2 | %30
 !tenuto![G,G]!tenuto![G,G] !tenuto![G,G]!tenuto![A,F] ([G,G]^c) |({ef} ed BG d2) | %32
!>(!({de} dB GD B2)!>)! |!mp! (B^F GA [DG]2- | [DG]2) !arpeggio![A,Fd]2 (d2- | d^f) (gb) ag | %36
 ^fe (dB) (AG) | !arpeggio![Gd]4 (d^c) |({ef} ed BG d2) |!>(!({de} dB GD B2)!>)! | (B^F GA [DG]2- | %41
 [DG]2) d4- | d(^F!>(! GB AG | ^FE) ([G,D]B, A,G,!>)! | A,2)!<(! (A,^G, B,A,!<)! | %45
 A,2)!f!"_subito" !tenuto![CA]!tenuto![C^G] !tenuto![CB]!tenuto![CA] | %46
 (GF) !tenuto![CE]!tenuto![CD] !tenuto!C!tenuto![CD] | %47
 (E=E)"_riten" !tenuto![DF]!tenuto![D^F]!<(! !tenuto![DG]!tenuto![D^G] | %48
 ([A,A][B,B] [=B,=B][Cc] [^C^c][Dd])!<)! |"_a tempo"!fff! !arpeggio![G,Dd]4- [G,Dd]!tenuto!c | %50
 !arpeggio![A,Fd]4 (A>A,) | [B,G]4 (f>=e) | !arpeggio![G,Bgd']4- [G,Bgd'][cc'] | [Ad']4 [Aa]>[Aa] | %54
 !arpeggio![G,Gg]4!>(! [Ff]>[=E=e]!>)! |!mf! [_E_e]4 (3([C^D][^C=E][=DF]) | [F^G]4 (3(^G[=GB]^G) | %57
!>(! !arpeggio![G,G=B]4 (3(^G[=G_B]^G)!>)! | %58
!p! !arpeggio![G,EB] z e/e/e/[_ee']/ [ee']/[ee']/ !fermata!z | %59
!mp! (3(G2 A2 G2)[Q:1/4=75] !arpeggio!!fermata![^F=B]2 |[Q:1/4=130] z6 | z6 | z6 | z6 | z6 | %65
 !fermata!z6 |!ff! z4"^pizz." .d2 | !>!.G,2 z4 |] %68
[K:G][M:3/4][Q:1/4=107]"^Stately"[Q:1/4=107]!pp!"^arco" z6 | z6 |!<(! z6!<)! |!p! z6 | %72
 z2 (!>!G,3 !>!A,- | A,2 !>!B,3) z |!<(! z2 (!>!G3 !>!A- | A2 !>!B3)!<)!!mp! (c | %76
 dB A(3B/d/g/ .f.e | d4) (3(.d.d.d | gd B(3d/g/b/ .f.e | d4) (3(.g.g.g | bg f(3a/c'/f'/ .b.a | %81
 b4) z2 | (!>!B,2 !>!C2 !>!A,2- | A,2) (!>!G,3 !>!A,- | A,2 !>!B,3) z | z2 (!>!G3 !>!A- | %86
 A2"_cresc." !>!B3)!mf! (c | dB A(3B/d/g/ fe | d4) (3(ddd | gd B(3d/g/b/ fe | g4) (3(ggg | %91
 bg f(3a/c'/f'/ ba | b3 [fa] [eg]2 | [^df]4 [ce-]2 | [Be]2)!p! (!>!D2 !>!F2 | %95
 !>!A2!mp! !>!B(3_e/f/b/ !>!e2 | !>!_B!>!A !>!^G(3_e/f/a/ !>!e2 | !>!c!>!B !>!A(3c/e/a/ !>!c2 | %98
 [_B_b]2 [Gg]2 [Ee]2) | (af e(3f/a/d'/ ^c'b | a4) (3(aaa | d'a f(3a/d'/f'/ ^c'b | %102
 d'4)!8va(! (3(d'd'd' | f'd' _d'(3e'/g'/_d''/ f'e')!8va)! | .g.f .e.d .e.d | (c2 B>B (3BAG | %106
{/G} g3 f e2) | (e3 d (3cBA |{/A} a3 g f2) |{/A} (a3 g =f2) | (ed c3 B) | (E>E E2 D2) | %112
 (!>!A2!mp! !>!B(3_e/f/b/ !>!e2 | !>!_B!>!A !>!^G(3_e/f/a/ !>!e2 | !>!c!>!B !>!A(3c/e/a/ !>!c2 | %115
 [_B_b]2 [Gg]2 [Ee]2) | z2 (!>!G,3 !>!A,- | A,2 !>!B,3) z | z2 (!>!G3 !>!A- | A2 !>!B3) (c | %120
 dB A(3B/d/g/ fe | d4) (3(ddd | gd B(3d/g/b/ fe | g4) (3(ggg | bg f(3a/c'/f'/ ba) | (gf ed ed) | %126
 (c2 B>B (3BAG |{/g} g'3 f e2) | (e3 d (3cBA |{/a} a'3 g f2) |!mf!{/A} (a2 =f) z z2 | %131
!p! (A2 _E) z z2 |!p! z2 (!>!G,3 !>!A,- | A,2 !>!B,) z z2 |!pp! z2 (G3 A- | A2 B) z z2 | %136
!8va(! z2 (g'3 a'- | a'2 b') z !breath!z2!8va)! |"_Sempre accel..."!p!"_cresc."{/A} (a3{/^A} ^a3 | %139
{/B} b3{/c} c'3 |{/^c} ^c'3{/d} d'3 |{/^d} ^d'3{/e} e'3 |{/^e} ^e'3{/f} f'3 | %143
!f!"_a tempo" !>![gg']6) |!pp! z2"_dim." (!>!G,3 !>!A,- | A,2 !>!B,3 !>!B,- | !fermata!B,4) z2 | %147
 z6 | z6 | z6 | z6 | z6 | z6 | z6 | z6 | z6 | z6 | z6 | z6 | z6 | z6 | z6 | z6 | z6 | z6 | z6 | %166
 z6 | z6 | z6 | z6 | z6 | z6 | z6 | z6 | z6 | z6 | z6 | z6 | z6 | z6 | z6 | z6 | z6 | z6 | z6 | %185
 z6 | z6 | z6 | z6 | z6 | z6 | z6 | z6 | z6 | z6 | z6 | z6 | z6 | z6 | z6 | z6 | z6 | z6 | z6 | %204
 z6 | z6 | z6 | z6 | z6 | z6 | z6 | z6 | z6 | z6 | z6 | z6 | z6 | z6 | z6 | z6 | z6 | z6 | z6 | %223
 z6 | z6 | z6 | z6 | z6 | z6 | z6 | z6 | z6 | z6 | z6 | z6 | z6 | z6 | z6 | z6 | z6 | z6 | z6 | %242
 z6 | z6 | z6 | z6 | z6 | z6 | z6 | z6 | z6 | z6 | z6 | z6 | z6 | z6 | z6 | z6 | z6 | z6 | z6 | %261
 z6 | z6 | z6 | z6 | z6 | z6 | z6 | z6 | z6 | z6 | z6 | z6 | z6 | z6 | z6 | z6 | z6 | z6 | z6 | %280
 z6 | z6 | z6 | z6 | z6 | z6 | z6 | z6 | z6 | z6 | z6 | z6 | z6 | z6 | z6 | z6 | z6 | z6 | z6 |] %299
V:2
 x6 | x6 | x6 | x6 | x6 | x6 | x4 D2- | D x d2 x ^c | d x D2 A,2 | x4 D2 | x6 | x6 | x6 | x2 f4- | %14
 f!8va(! x5 | x4!8va)! x2 | x6 | x6 | x6 | x6 | x6 | x6 | x6 | x6 | D6 | D6 | G,6 | G,6 | x6 | x6 | %30
 x6 | x6 | x6 | x6 | x4 D2- | D2 d2 x ^c | d x D2 A,2 | D4 D2 | x6 | x6 | x6 | x2 F4- | F x5 | x6 | %44
 x6 | x6 | x6 | x6 | x6 | x6 | x6 | x6 | x6 | x6 | x6 | x6 | x6 | x6 | x7/2 x/ x/x/ x | E4 C2 | %60
 x6 | x6 | x6 | x6 | x6 | x6 | x6 | x6 |][K:G][M:3/4] x6 | x6 | x6 | x6 | x6 | x6 | x6 | x6 | x6 | %77
 x6 | x6 | x6 | x6 | x6 | x6 | x6 | x6 | x6 | x6 | !^!G2 !^!D2 !^!G2 | !^!B4 z2 | %89
 !^!B2 !^!G2 !^!B2 | !^!d4 z2 | !^!d2 !^!c2 !^!d2 | !^!e2 x4 | x6 | x6 | x6 | x6 | x6 | x6 | %99
 !^!d2 !^!A2 !^!d2 | !^!f4 z2 | !^!f2 !^!d2 !^!f2 | !^!a4!8va(! z2 | !^!a2 !^!g2 !^!a2!8va)! | x6 | %105
 x6 | x6 | x6 | x6 | x6 | x6 | x6 | x6 | x6 | x6 | x6 | x6 | x6 | x6 | x6 | !^!G2 !^!D2 !^!G2 | %121
 !^!B4 z2 | !^!B2 !^!G2 !^!B2 | !^!d4 z2 | !^!d2 !^!c2 !^!d2 | x6 | x6 | x6 | x6 | x6 | x6 | x6 | %132
 x6 | x6 | x6 | x6 |!8va(! x6 | x6!8va)! | x6 | x6 | x6 | x6 | x6 | x6 | x6 | x6 | x6 | x6 | x6 | %149
 x6 | x6 | x6 | x6 | x6 | x6 | x6 | x6 | x6 | x6 | x6 | x6 | x6 | x6 | x6 | x6 | x6 | x6 | x6 | %168
 x6 | x6 | x6 | x6 | x6 | x6 | x6 | x6 | x6 | x6 | x6 | x6 | x6 | x6 | x6 | x6 | x6 | x6 | x6 | %187
 x6 | x6 | x6 | x6 | x6 | x6 | x6 | x6 | x6 | x6 | x6 | x6 | x6 | x6 | x6 | x6 | x6 | x6 | x6 | %206
 x6 | x6 | x6 | x6 | x6 | x6 | x6 | x6 | x6 | x6 | x6 | x6 | x6 | x6 | x6 | x6 | x6 | x6 | x6 | %225
 x6 | x6 | x6 | x6 | x6 | x6 | x6 | x6 | x6 | x6 | x6 | x6 | x6 | x6 | x6 | x6 | x6 | x6 | x6 | %244
 x6 | x6 | x6 | x6 | x6 | x6 | x6 | x6 | x6 | x6 | x6 | x6 | x6 | x6 | x6 | x6 | x6 | x6 | x6 | %263
 x6 | x6 | x6 | x6 | x6 | x6 | x6 | x6 | x6 | x6 | x6 | x6 | x6 | x6 | x6 | x6 | x6 | x6 | x6 | %282
 x6 | x6 | x6 | x6 | x6 | x6 | x6 | x6 | x6 | x6 | x6 | x6 | x6 | x6 | x6 | x6 | x6 |] %299
V:3
!f!"_dim." x6 | x6 | x6 | x6 | x4 !arpeggio![D^FBd]2-!p! | [DFBd]6- | [DFBd]2 z4 |!mp! x6 | x6 | %9
 x6 | x6 |!>(! x6!>)! |!<(! z6!<)! |[K:bass] z6 |!mf! x6 | x6 | x6 | x6 | x6 | x6 | x2 x4 | %21
!f!!f!!f! z2 [FAd]2 [FAd]2 | z2 [EGc]2 [EGc]2 | z2 [GBd]2 [GBd]2 | %24
!f!"_subito" z2 ([Be_g]>[Beg] [_GBe]2) | z2 ([_GBe]>[GBe] [EGB]2) | z2 ([_Adf]>[Adf] [FAd]2) | %27
 z2 ([F_Ad]>[FAd] [DFA]2) |!mf! z2 [FAd]2 [FAd]2 | z2 [EGc]2 [EGc]2 | z2 ([GBd]2 [DGB]2) | x6 | %32
 x6 |!mp! z6 |[K:bass] z6 |[K:treble] x6 | x6 | x6 | x6 |!>(! x6!>)! | z6 |[K:bass] z6 | %42
[K:treble] x6 |!>(! x6!>)! |!<(! x6!<)! |!f!"_subito" x6 | x6 | x6 |[K:bass]!<(! x6!<)! | %49
[K:treble]!fff! !>![DGBd]<!>![DGBd]- [DGBd]4 | !>![DFAd]<!>![DFAd]- [DFAd]4 | %51
 !>![GBdg]<!>![GBdg]- [GBdg]4 | !>![GBdg]<!>![GBdg]- [GBdg]4 | !>![Adfa]<!>![Adfa]- [Adfa]4 | %54
!>(! !>![Bdgb]<!>![Bdgb]- [Bdgb]4!>)! |!mf! !>![ce^gc']<!>![cegc']- [cegc']4 | %56
 !>![df^gd']<!>![dfgd']- [dfgd']4 |!>(! !>![d=g=bd']<!>![dgbd']- [dgbd']4!>)! |!p! !fermata!z6 | %59
 !fermata!z6 |!mp! (D^F GB AG) | x6 | x6 | x6 | x6 | !fermata!z6 |[K:bass]!ff! x6 | z6 |] %68
[K:G][M:3/4] z6 | z6 | z6 | z6 | z6 | z6 | z6 | z6 | z6 | z6 | z6 | z6 | z6 | z6 | z6 | z6 | z6 | %85
 z6 | z6 | z6 | z6 | z6 | z6 | z6 | z6 | z6 | z6 | z6 | z6 | z6 | z6 | z6 | z6 | z6 | z6 | z6 | %104
 z6 | z6 | z6 | z6 | z6 | z6 | z6 | z6 | z6 | z6 | z6 | z6 | z6 | z6 | z6 | z6 | z6 | z6 | z6 | %123
 z6 | z6 | z6 | z6 | z6 | z6 | z6 | z6 | z6 | z6 | z6 | z6 | z6 | z6 | z6 | z6 | z6 | z6 | z6 | %142
 z6 | z6 | z6 | z6 | z4!pp!"^Qausi arpa" (!arpeggio!.[gbd'g']2 | %147
 !arpeggio!.[egbe']2 !arpeggio!.[dfad']2 !arpeggio!.[Bdgb]2 | %148
 !arpeggio!.[GBdg]2 !arpeggio!.[DGBd]2 !arpeggio!.[B,DGB]2 | %149
 !arpeggio!.[A,C_EG]2 .!fermata![G,B,DG]2)!ppp! !>!!fermata![bg']2 | z6 | z6 | z6 | z6 | z6 | z6 | %156
 z6 | z6 | z6 | z6 | z6 | z6 | z6 | z6 | z6 | z6 | z6 | z6 | z6 | z6 | z6 | z6 | z6 | z6 | z6 | %175
 z6 | z6 | z6 | z6 | z6 | z6 | z6 | z6 | z6 | z6 | z6 | z6 | z6 | z6 | z6 | z6 | z6 | z6 | z6 | %194
 z6 | z6 | z6 | z6 | z6 | z6 | z6 | z6 | z6 | z6 | z6 | z6 | z6 | z6 | z6 | z6 | z6 | z6 | z6 | %213
 z6 | z6 | z6 | z6 | z6 | z6 | z6 | z6 | z6 | z6 | z6 | z6 | z6 | z6 | z6 | z6 | z6 | z6 | z6 | %232
 z6 | z6 | z6 | z6 | z6 | z6 | z6 | z6 | z6 | z6 | z6 | z6 | z6 | z6 | z6 | z6 | z6 | z6 | z6 | %251
 z6 | z6 | z6 | z6 | z6 | z6 | z6 | z6 | z6 | z6 | z6 | z6 | z6 | z6 | z6 | z6 | z6 | z6 | z6 | %270
 z6 | z6 | z6 | z6 | z6 | z6 | z6 | z6 | z6 | z6 | z6 | z6 | z6 | z6 | z6 | z6 | z6 | z6 | z6 | %289
 z6 | z6 | z6 | z6 | z6 | z6 | z6 | z6 | z6 | z6 |] %299
V:4
 z2[I:staff -1] .[B,D]2 .[B,D]2 |[I:staff +1] z2[I:staff -1] .[B,D]2 .[B,D]2 | %2
[I:staff +1] z2[I:staff -1] .[B,D]2 .[B,D]2 |[I:staff +1] z2[I:staff -1] .[B,D]2 .[B,D]2 | %4
[I:staff +1] z2[I:staff -1] .[B,D]2[I:staff +1] [D,^F,B,]2- | [D,F,B,]6- | [D,F,B,]2 z4 | %7
 z2[I:staff -1] [G,B,D]2 [G,B,D]2 |[I:staff +1] z2[I:staff -1] [B,DG]2 [B,DG]2 | %9
[I:staff +1] z2[I:staff -1] !arpeggio![A,E^FA]4 |[I:staff +1] z2[I:staff -1] ([DGB]2 [B,DG]2) | %11
[I:staff +1] z2[I:staff -1] ([B,DG]2 [G,B,D]2) |[I:staff +1] .[G,,,G,,]2 .[D,,D,]2 .[G,,G,]2 | %13
[I:staff -1] .[G,G].[E,E] .[D,D].[C,C] .[B,,B,].[A,,A,] | %14
[I:staff +1] z2[I:staff -1] [B,DG]2 [B,DG]2 |[I:staff +1] z2[I:staff -1] [B,DG]2 [B,DG]2 | %16
[I:staff +1] z2[I:staff -1] [FAd]2 [FAd]2 |[I:staff +1] z2[I:staff -1] [FAd]2 [FAd]2 | %18
!ped![I:staff +1] z2[I:staff -1] [CD^FB]4!ped-up! | %19
!ped![I:staff +1] z2[I:staff -1] [CD^FA]4!ped-up! |!ped![I:staff +1] z2 [A,,C,^F,]4!ped-up! | x6 | %22
 [C,,C,]6 | [G,,,G,,C,]6 | ([E,,E,]4 [_G,B,E]2) | ([E,,E,]4 [E,_G,B,]2) | ([D,,D,]4 [F,_A,D]2) | %27
 ([D,,D,]4 [D,F,_A,]2) | x6 | [C,,C,]6 | [G,,,G,,C,]6 | z2[I:staff -1] ([DGB]2 [B,DG]2) | %32
[I:staff +1] z2[I:staff -1] ([B,DG]2 [G,B,D]2) |[I:staff +1] .[G,,,G,,]2 .[D,,D,]2 .[G,,G,]2 | %34
[I:staff -1] .[G,G].[E,E] .[D,D].[C,C] .[B,,B,].[A,,A,] | %35
[I:staff +1] z2[I:staff -1] [G,B,D]2 [G,B,D]2 |[I:staff +1] z2[I:staff -1] [B,DG]2 [B,DG]2 | %37
[I:staff +1] z2[I:staff -1] !arpeggio![A,E^FA]4 |[I:staff +1] z2[I:staff -1] ([DGB]2 [B,DG]2) | %39
[I:staff +1] z2[I:staff -1] ([B,DG]2 [G,B,D]2) |[I:staff +1] .[G,,,G,,]2 .[D,,D,]2 .[G,,G,]2 | %41
[I:staff -1] .[G,G].[E,E] .[D,D].[C,C] .[B,,B,].[A,,A,] | %42
[I:staff +1] z2[I:staff -1] [B,DG]2 [B,DG]2 |[I:staff +1] z2[I:staff -1] [B,DG]2 [B,DG]2 | %44
[I:staff +1] z2[I:staff -1] [FAd]2 [FAd]2 |[I:staff +1] z2[I:staff -1] [FAd]2 [FAd]2 | %46
!ped![I:staff +1] z2[I:staff -1] [CD^FB]4!ped-up! | %47
!ped![I:staff +1] z2[I:staff -1] [CD^FA]4!ped-up! | %48
!ped![I:staff +1] [F,,,F,,]2[I:staff -1] [A,,C,^F,]!ped-up!!ped![I:staff +1][C,,C,][^C,,^C,]!ped-up![D,,D,] | %49
!ped! (!>![D,,D,]A,,/C,/ ^C,/D,/=E,/F,/)[I:staff -1] ^G,/A,/[I:staff +1].A,,!ped-up! | %50
!ped! (!>!D,,A,,/C,/ ^C,/D,/=E,/F,/)[I:staff -1] ^G,/A,/[I:staff +1].A,,!ped-up! | %51
!ped! (!>!D,,A,,/C,/ ^C,/D,/=E,/F,/)[I:staff -1] ^G,/A,/[I:staff +1].A,,!ped-up! | %52
!ped! (!>!D,,A,,/C,/ ^C,/D,/=E,/F,/)[I:staff -1] ^G,/A,/[I:staff +1].A,,!ped-up! | %53
!ped! (!>!D,,A,,/C,/ ^C,/D,/=E,/F,/)[I:staff -1] ^G,/A,/[I:staff +1].A,,!ped-up! | %54
!ped! (!>!D,,A,,/C,/ ^C,/D,/=E,/F,/)[I:staff -1] ^G,/A,/[I:staff +1].A,,!ped-up! | %55
!ped! (!>!=B,,,F,,/^F,,/ G,,/^G,,/A,,/B,,/ =B,,/C,/^C,/D,/!ped-up! | %56
!ped! E,/=E,/F,/^F,/ G,/^G,/A,/B,/ =B,/C/^C/D/) | (!>!=E,,/=E,/F,/^F,/ G,/^G,/A,/B,/ =B,/C/^C/D/) | %58
 (E/!ped-up!!ped!E,/[I:staff -1]E/e/)[I:staff +1] !fermata!z4!ped-up! | !fermata!z6 | %60
 (D,^F, G,B, A,G,) | z2[I:staff -1] .[B,D]2 .[B,D]2 |[I:staff +1] z2[I:staff -1] [B,D]4 | %63
[I:staff +1] z2[I:staff -1] .[B,D]2 .[B,D]2 |[I:staff +1] z2[I:staff -1] [B,D]4 | %65
[I:staff +1] !fermata!z6 | z2[I:staff -1] .[B,D]2 .[D,^F,B,]2 |[I:staff +1] !>!.[G,,,G,,]2 z4 |] %68
[K:G][M:3/4] z2 (!>!G,2 !>!E,2 | !>!D,2 !>!B,,2 !>!A,,2 |!ped! (!>!G,,2) [G,B,]2 [G,B,]2)!ped-up! | %71
!ped! (D,2 [G,B,]2 [G,B,]2)!ped-up! |!ped! G,,2 B,2 B,2!ped-up! |!ped! D,2 G,2 G,2!ped-up! | %74
!ped! G,,2 [G,B,]2 [G,B,]2!ped-up! |!ped! D,2 [G,B,]2 [G,B,]2!ped-up! | %76
!ped! G,,2 [G,B,]2 [G,B,]2!ped-up! |!ped! !>!D,,2 [F,A,]2 !>!F,,2!ped-up! | %78
!ped! G,,2 [G,B,]2 [G,B,]2!ped-up! |!ped! D,2 [F,A,]2 [CF]2!ped-up! | %80
!ped! G,,2 [G,B,]2 [G,B,]2!ped-up! |!ped! D,2 [G,B,]2 [G,B,]2!ped-up! | (!^!_E,2 !^!G,2 !^!D,2) | %83
!ped! G,,2 B,2 B,2!ped-up! |!ped! D,2 G,2 G,2!ped-up! |!ped! G,,2 [G,B,]2 [G,B,]2!ped-up! | %86
!ped! D,2 [G,B,]2 [G,B,]2!ped-up! |!ped! G,,2 [G,B,]2 [G,B,]2!ped-up! | %88
!ped! !>!D,,2 [F,A,]2 !>!F,,2!ped-up! |!ped! G,,2 [G,B,]2 [G,B,]2!ped-up! | %90
!ped! D,2 [F,A,]2 [CF]2!ped-up! |!ped! G,,2 [G,B,]2 [G,B,]2!ped-up! | %92
!ped! E,2 [G,B,]2 [G,B,]2!ped-up! |!ped! ^D,2 [G,B,]2 [G,B,]2!ped-up! | %94
!ped! D,2 [G,B,]2 [G,_B,]2!ped-up! | A,,2!ped! _E,2 E,2!ped-up! | _B,,2!ped! _E,2 E,2!ped-up! | %97
 A,,2!ped! C,2 C,2!ped-up! | [_B,,_B,]2 [G,,G,]2 [E,,E,]2 |!ped! D,2 [DF]2 [DF]2!ped-up! | %100
!ped! !>!A,,2 [^CE]2 !>!^C,2!ped-up! |!ped! !>!D,2 [DF]2 [DF]2!ped-up! | %102
!ped! A,2 [^CE]2 [G^c]2!ped-up! |!ped! D,2 [DF]2 [DF]2!ped-up! | (G,F, E,D, E,D,) | %105
!ped! G,,2 [G,B,]2 [G,B,]2!ped-up! |!ped! D,2 [G,B,]2 [G,B,]2!ped-up! | %107
!ped! E,,2 [G,B,]2 [G,B,]2!ped-up! |!ped! A,,2 [E,A,]2 [E,A,]2!ped-up! | %109
!ped! A,,2 [E,A,]2 [E,A,]2!ped-up! |!ped! B,,2 [E,G,]2 [E,G,]2!ped-up! | %111
!ped! [G,B,]2 [G,B,]4!ped-up! | A,,2!ped! _E,2 E,2!ped-up! | _B,,2!ped! _E,2 E,2!ped-up! | %114
 A,,2!ped! C,2 C,2!ped-up! | [_B,,_B,]2 [G,,G,]2 [E,,E,]2 |!ped! G,,2 B,2 B,2!ped-up! | %117
!ped! D,2 G,2 G,2!ped-up! |!ped! G,,2 [G,B,]2 [G,B,]2!ped-up! |!ped! D,2 [G,B,]2 [G,B,]2!ped-up! | %120
!ped! G,,2 [G,B,]2 [G,B,]2!ped-up! |!ped! !>!D,,2 [F,A,]2 !>!F,,2!ped-up! | %122
!ped! !>!G,,2 [G,B,]2 [G,B,]2!ped-up! |!ped! D,2 [F,A,]2 [CF]2!ped-up! | %124
!ped! G,,2 [G,B,]2 [G,B,]2!ped-up! | .G,.F, .E,.D, .E,.D, |!ped! !>!G,,2 [G,B,]2 [G,B,]2!ped-up! | %127
!ped! D,2 [G,B,]2 [G,B,]2!ped-up! |!ped! E,,2 [G,B,]2 [G,B,]2!ped-up! | %129
!ped! A,,2 [E,A,]2 [E,A,]2!ped-up! | (A,,2 [=F,A,]) z z2 | (A,,,2 A,,) z z2 | %132
!ped! G,,2 B,2 B,2!ped-up! |!ped! D,2 G,!ped-up! z z2 |!ped! G,,2 B,4 | D,2 G,!ped-up! z z2 | %136
 z2!ped! B,4 | D2 G!ped-up! z z2 |!ped!{/A,} (A,,3!ped-up!!ped!{/_A,} _A,,3!ped-up! | %139
!ped!{/G,} G,,3!ped-up!!ped!{/F,} F,,3!ped-up! |!ped!{/=F,} =F,,3!ped-up!!ped!{/E,} E,,3!ped-up! | %141
!ped!{/_E,} _E,,3!ped-up!!ped!{/D,} D,,3!ped-up! | %142
!ped!{/_D,} _D,,3!ped-up!!ped!{/C,} C,,3!ped-up! |!ped! !>![D,,D,]6-) | [D,,D,]6- | [D,,D,]6- | %146
 [D,,D,]4!ped-up!!ped! (.[G,,G,]2!ped-up! | %147
!ped! .[E,E]2!ped-up!!ped! .[D,D]2!ped-up!!ped! .[B,,B,]2!ped-up! | %148
!ped! .[G,,G,]2!ped-up!!ped! .[D,,D,]2!ped-up!!ped! .[B,,,B,,]2!ped-up! | %149
!ped! .[A,,,A,,]2!ped-up!!ped! .[G,,,G,,]2)!ped-up!!ped! z2!ped-up! | z6 | z6 | z6 | z6 | z6 | z6 | %156
 z6 | z6 | z6 | z6 | z6 | z6 | z6 | z6 | z6 | z6 | z6 | z6 | z6 | z6 | z6 | z6 | z6 | z6 | z6 | %175
 z6 | z6 | z6 | z6 | z6 | z6 | z6 | z6 | z6 | z6 | z6 | z6 | z6 | z6 | z6 | z6 | z6 | z6 | z6 | %194
 z6 | z6 | z6 | z6 | z6 | z6 | z6 | z6 | z6 | z6 | z6 | z6 | z6 | z6 | z6 | z6 | z6 | z6 | z6 | %213
 z6 | z6 | z6 | z6 | z6 | z6 | z6 | z6 | z6 | z6 | z6 | z6 | z6 | z6 | z6 | z6 | z6 | z6 | z6 | %232
 z6 | z6 | z6 | z6 | z6 | z6 | z6 | z6 | z6 | z6 | z6 | z6 | z6 | z6 | z6 | z6 | z6 | z6 | z6 | %251
 z6 | z6 | z6 | z6 | z6 | z6 | z6 | z6 | z6 | z6 | z6 | z6 | z6 | z6 | z6 | z6 | z6 | z6 | z6 | %270
 z6 | z6 | z6 | z6 | z6 | z6 | z6 | z6 | z6 | z6 | z6 | z6 | z6 | z6 | z6 | z6 | z6 | z6 | z6 | %289
 z6 | z6 | z6 | z6 | z6 | z6 | z6 | z6 | z6 | z6 |] %299
V:5
 [G,,,G,,]6 | [D,,D,]6 | [G,,,G,,]6 | [D,,D,]6 | [G,,G,]6 | x6 | x6 | [G,,,G,,]6 | [D,,D,]6 | %9
 G,,6 | [D,,D,]6 | [B,,,B,,]6 | x6 | x6 | [G,,,G,,]6 | [D,,D,]6 | [A,,,A,,]2 [D,D][D,D][D,D][D,D] | %17
 [D,,D,]2 [C,C][C,C][C,C][C,C] | [B,,,B,,]2 [C,,C,][C,,C,][C,,C,][C,,C,] | %19
 [A,,,A,,]2 [D,,D,][D,,D,] [D,,D,][D,,D,] | F,,,6 | x6 | x6 | x6 | x6 | x6 | x6 | x6 | x6 | x6 | %30
 x6 | [D,,D,]6 | [B,,,B,,]6 | x6 | x6 | [G,,,G,,]6 | [D,,D,]6 | G,,6 | [D,,D,]6 | [B,,,B,,]6 | x6 | %41
 x6 | [G,,,G,,]6 | [D,,D,]6 | [A,,,A,,]2 [D,D][D,D][D,D][D,D] | [D,,D,]2 [C,C][C,C][C,C][C,C] | %46
 [B,,,B,,]2 [C,,C,][C,,C,][C,,C,][C,,C,] | [A,,,A,,]2 [D,,D,][D,,D,][D,,D,][D,,D,] | x6 | x6 | x6 | %51
 x6 | x6 | x6 | x6 | x6 | x6 | x6 | x6 | x6 | x6 | [G,,,G,,]6 | [D,,D,]6 | [G,,,G,,]6 | [D,,D,]6 | %65
 x6 | [G,,G,]6 | x6 |][K:G][M:3/4] x6 | x6 | x6 | x6 | x6 | x6 | x6 | x6 | x6 | x6 | x6 | x6 | x6 | %81
 x6 | x6 | x6 | x6 | x6 | x6 | x6 | x6 | x6 | x6 | x6 | x6 | x6 | x6 | x6 | x6 | x6 | x6 | x6 | %100
 x6 | x6 | x6 | x6 | x6 | x6 | x6 | x6 | x6 | x6 | x6 | x6 | x6 | x6 | x6 | x6 | x6 | x6 | x6 | %119
 x6 | x6 | x6 | x6 | x6 | x6 | x6 | x6 | x6 | x6 | x6 | x6 | x6 | x6 | x6 | x6 | x6 | x6 | x6 | %138
 x6 | x6 | x6 | x6 | x6 | x6 | x6 | x6 | x6 | x6 | x6 | x6 | x6 | x6 | x6 | x6 | x6 | x6 | x6 | %157
 x6 | x6 | x6 | x6 | x6 | x6 | x6 | x6 | x6 | x6 | x6 | x6 | x6 | x6 | x6 | x6 | x6 | x6 | x6 | %176
 x6 | x6 | x6 | x6 | x6 | x6 | x6 | x6 | x6 | x6 | x6 | x6 | x6 | x6 | x6 | x6 | x6 | x6 | x6 | %195
 x6 | x6 | x6 | x6 | x6 | x6 | x6 | x6 | x6 | x6 | x6 | x6 | x6 | x6 | x6 | x6 | x6 | x6 | x6 | %214
 x6 | x6 | x6 | x6 | x6 | x6 | x6 | x6 | x6 | x6 | x6 | x6 | x6 | x6 | x6 | x6 | x6 | x6 | x6 | %233
 x6 | x6 | x6 | x6 | x6 | x6 | x6 | x6 | x6 | x6 | x6 | x6 | x6 | x6 | x6 | x6 | x6 | x6 | x6 | %252
 x6 | x6 | x6 | x6 | x6 | x6 | x6 | x6 | x6 | x6 | x6 | x6 | x6 | x6 | x6 | x6 | x6 | x6 | x6 | %271
 x6 | x6 | x6 | x6 | x6 | x6 | x6 | x6 | x6 | x6 | x6 | x6 | x6 | x6 | x6 | x6 | x6 | x6 | x6 | %290
 x6 | x6 | x6 | x6 | x6 | x6 | x6 | x6 | x6 |] %299
V:6
 x6 | x6 | x6 | x6 | x6 | x6 | x6 | x6 | x6 | x6 | x6 | x6 | x6 | x6 | x6 | x6 | x6 | x6 | x6 | %19
 x6 | x6 | [A,,,A,,]6 | x6 | x6 | x6 | x6 | x6 | x6 | [=A,,=A,]6 | x6 | x6 | x6 | x6 | x6 | x6 | %35
 x6 | x6 | x6 | x6 | x6 | x6 | x6 | x6 | x6 | x6 | x6 | x6 | x6 | x6 | x6 | x6 | x6 | x6 | x6 | %54
 x6 | x6 | x6 | x6 | x6 | x6 | x6 | x6 | x6 | x6 | x6 | x6 | x6 | x6 |][K:G][M:3/4] x6 | x6 | x6 | %71
 x6 | x6 | x6 | x6 | x6 | x6 | x6 | x6 | x6 | x6 | x6 | x6 | x6 | x6 | x6 | x6 | x6 | x6 | x6 | %90
 x6 | x6 | x6 | x6 | x6 | x6 | x6 | x6 | x6 | x6 | x6 | x6 | x6 | x6 | x6 | x6 | x6 | x6 | x6 | %109
 x6 | x6 | x6 | x6 | x6 | x6 | x6 | x6 | x6 | x6 | x6 | x6 | x6 | x6 | x6 | x6 | x6 | x6 | x6 | %128
 x6 | x6 | x6 | x6 | x6 | x6 | x6 | x6 | x6 | x6 | x6 | x6 | x6 | x6 | x6 | x6 | x6 | x6 | x6 | %147
 x6 | x6 | x4[I:staff -1] [Gd]2 | x6 | x6 | x6 | x6 | x6 | x6 | x6 | x6 | x6 | x6 | x6 | x6 | x6 | %163
 x6 | x6 | x6 | x6 | x6 | x6 | x6 | x6 | x6 | x6 | x6 | x6 | x6 | x6 | x6 | x6 | x6 | x6 | x6 | %182
 x6 | x6 | x6 | x6 | x6 | x6 | x6 | x6 | x6 | x6 | x6 | x6 | x6 | x6 | x6 | x6 | x6 | x6 | x6 | %201
 x6 | x6 | x6 | x6 | x6 | x6 | x6 | x6 | x6 | x6 | x6 | x6 | x6 | x6 | x6 | x6 | x6 | x6 | x6 | %220
 x6 | x6 | x6 | x6 | x6 | x6 | x6 | x6 | x6 | x6 | x6 | x6 | x6 | x6 | x6 | x6 | x6 | x6 | x6 | %239
 x6 | x6 | x6 | x6 | x6 | x6 | x6 | x6 | x6 | x6 | x6 | x6 | x6 | x6 | x6 | x6 | x6 | x6 | x6 | %258
 x6 | x6 | x6 | x6 | x6 | x6 | x6 | x6 | x6 | x6 | x6 | x6 | x6 | x6 | x6 | x6 | x6 | x6 | x6 | %277
 x6 | x6 | x6 | x6 | x6 | x6 | x6 | x6 | x6 | x6 | x6 | x6 | x6 | x6 | x6 | x6 | x6 | x6 | x6 | %296
 x6 | x6 | x6 |] %299

